shared/images/iconfont/kb-iconfont-compose-16.svg

<?xml version="1.0" encoding="UTF-8"?>
<svg width="16px" height="16px" viewBox="0 0 16 16" version="1.1" xmlns="http://www.w3.org/2000/svg" xmlns:xlink="http://www.w3.org/1999/xlink">
    <!-- Generator: sketchtool 49.3 (51167) - http://www.bohemiancoding.com/sketch -->
    <title>4690D199-62FD-4EDE-8916-06053855A533</title>
    <desc>Created with sketchtool.</desc>
    <defs></defs>
    <g id="Colors,-icons" stroke="none" stroke-width="1" fill="none" fill-rule="evenodd">
        <g id="Icons-2" transform="translate(-370.000000, -337.000000)" fill="#000000">
            <g id="kb-iconfont-compose-16" transform="translate(370.000000, 337.000000)">
                <path d="M13.0037991,10.4016468 L13.0037991,13.0296948 C13.0037991,13.5798735 12.5594648,14.0261204 12.0061117,14.0261204 L2.97406673,14.0261204 C2.42071358,14.0261204 1.97637925,13.5806984 1.97637925,13.0296948 L1.97637925,3.98927688 C1.97637925,3.43744845 2.42071358,2.99450096 2.97406673,2.99450096 L6.01341608,2.99450096 C6.56933262,2.99450096 7.10016707,2.76312062 7.47857053,2.35586882 L7.81178555,1.99725048 C8.03484815,1.75718226 8.02106237,1.38174055 7.78099415,1.15867796 C7.67122777,1.05668705 7.52693951,1 7.37710359,1 L2.97406673,1 C1.33382887,1.01897168 0,2.35441298 0,3.99010173 L0,13.0296948 C0,14.6678581 1.33300297,16 2.97406673,16 L12.0251074,16 C13.6636934,16 15,14.668683 15,13.0296948 L15,8.93889848 C15,8.62033423 14.7417527,8.36208689 14.4231884,8.36208689 C14.2635067,8.36208689 14.1109696,8.42828192 14.0018996,8.54490949 L13.5430489,9.03555437 C13.1965581,9.40605384 13.0037991,9.894374 13.0037991,10.4016468 Z" id="Combined-Shape"></path>
                <path d="M6.85383689,6.61321114 L12.9995234,0.364472423 C13.4624177,-0.106183817 14.2181706,-0.123193657 14.7019749,0.326155099 L15.6128524,1.17216187 C15.6225663,1.181184 15.6321313,1.19036362 15.6415436,1.19969706 C16.1182972,1.67245917 16.1196566,2.4403108 15.6445799,2.91474167 L9.40193787,9.14889792 L6.85383689,6.61321114 Z M8.20675158,9.57530024 L6.77490951,9.97722657 C6.66673727,10.0075911 6.55223319,10.0075911 6.44406095,9.97722657 C6.12017661,9.88631037 5.93167945,9.55132727 6.02304076,9.22902088 L6.42693484,7.80415467 L8.20675158,9.57530024 Z" id="Combined-Shape"></path>
            </g>
        </g>
    </g>
</svg>

<svg xmlns="http://www.w3.org/2000/svg" width="16" height="16" viewBox="0 0 16 16">
    <g fill="#000" fill-rule="evenodd">
        <path d="M13.004 10.402v2.628c0 .55-.445.996-.998.996H2.974a.995.995 0 0 1-.998-.996V3.99c0-.553.445-.995.998-.995h3.04a2 2 0 0 0 1.465-.64l.333-.358A.593.593 0 0 0 7.377 1H2.974C1.334 1.019 0 2.354 0 3.99v9.04A2.975 2.975 0 0 0 2.974 16h9.051A2.976 2.976 0 0 0 15 13.03V8.939a.577.577 0 0 0-.998-.394l-.459.49a2 2 0 0 0-.54 1.367z"/>
        <path d="M6.854 6.613L13 .364a1.223 1.223 0 0 1 1.702-.038l.91.846.03.028c.476.472.478 1.24.003 1.715L9.402 9.149 6.854 6.613zm1.353 2.962l-1.432.402a.606.606 0 0 1-.752-.748l.404-1.425 1.78 1.771z"/>
    </g>
</svg>
